X: 1
T: Irish Jig, The
M: 9/8
L: 1/8
R: slip jig
K: Dmaj
d2f faf g2e | f2d ged c2A | d2f faf g2e | f2d gec d3 :|
efe ecA cBA | efe ecA Bcd | efe ecA cBA | faf gec d3 :|
